X:8312
T:Julia Delaney
M:4/4
R:Reel
A:Ireland
K:F
dcAG F2 FD|E2 DE FE D2|dcAG F2 DE|Fddc defe|
dcAG F2 FD|E2 DE FE D2|dcAG F2 DE|[1Fd dc d4:|[2Fddc d2de||
f2 de fagf|ecgc acgc|fede fagf|edcA d2 de|
f2 de fagf|ecgc acgc|fedf edcB|Ad dc d4:|
